X:1
T:The Riddle
M:3/4
L:1/4
K:G
 g/2| f d e| f g f| e d c| B A B|c/2-B/2B/2-G/2 d3/2| d/2| d c c| cd/2-c/2 B|\
 B gf/2-g/2| a d a|f/2-g/2 a g| d/2c/2|
M:3/4
 B A G| c B A| B A G| c B A| d c B| e c d| G3-| G z d/2c/2| B A G|\
 c B A| B A G| c B A| d c B| e c d| G3|

